X: 13
T: Foxhunter, The
Z: Dr. Dow
S: https://thesession.org/tunes/482#setting15802
R: slip jig
M: 9/8
L: 1/8
K: Gmaj
|:B3 B2A G2A|B2E E2D G2A|Bed B2A F2A|d2D D2F E2D:|
K: Dmaj
|:f3 ~f2a g2e|~f3 f2d e2f|d2f f2a g2b|a2f d2f e2d:|

